X:1
T:Title
%%score { ( 1 3 ) | 2 }
L:1/8
M:4/4
K:Ab
V:1 treble nm="Grand Piano"
V:3 treble 
V:2 bass 
V:1
 z4 z2[Q:1/4=100] [CE][CE] | [CA][CA][CA][CA] [CF][CE][EA][Ec] |[M:3/4] B6 |[M:1/4] EE | %4
[M:4/4] BBBB GEBd |[M:3/4] c6 |[M:1/4] AB |[M:4/4] cccc cAce |[M:3/4] [Fd]6[K:bass] | %9
[M:1/4][K:treble] [Fc]>[FB] |[M:4/4] [EA]2 [EA]2 [DG]2 [DB]2 |[M:3/4] [CA]6 |[M:1/4] ce | %13
[M:4/4] B6 z2 | e6 z2 | A2 [EA]2 [FA]2 F2 | E6 [CE][CE] | [CE][CE][DF][DG] [CA]2 [DB][Ec] | %18
 [Fd][Fd]dd c2 [FB]>[FB] | A2 A2 G2 B2 |[M:3/4] [CA]6 |] %21
V:2
 z4 z2 [A,,A,][B,,A,] | [A,,E,][A,,E,][A,,E,][A,,E,] [A,,A,][A,,A,][C,A,][A,,A,] | %2
[M:3/4] [E,G,E]2 [E,B,][E,A,] [E,G,]2 |[M:1/4] [E,G,][E,G,] | %4
[M:4/4] [E,G,E][E,G,E][E,G,E][E,G,E] [E,B,E][E,G,][E,G,E][E,B,E] |[M:3/4] [A,E]2 A,,A,, [A,,A,]2 | %6
[M:1/4][K:treble] [A,C][A,D] |[M:4/4] [A,E][A,E][A,E][A,E] [A,E][A,C][A,E][A,_G] | %8
[M:3/4][K:bass] [D,A,]2 F,E, D,2 |[M:1/4] [D,A,]>[D,D] |[M:4/4] [E,C]2 [D,C]2 [E,B,]2 [E,G,]2 | %11
[M:3/4] [A,,A,]6 |[M:1/4] z2 |[M:4/4] z2 [E,G,][F,A,] [G,B,]2 z2 | %14
 z2[K:treble] [A,C][B,D] [CE]2 [A,E]>[A,D] | [A,C]2 [C,A,]2 [D,A,]2 [F,A,D]2 | %16
 [A,C]6 [A,,A,][A,,A,] | [A,,A,][A,,A,][A,,A,][A,,A,] [A,,A,]2 [A,,A,][A,,A,] | %18
 [D,A,][E,A,][K:treble][F,A,F][G,B,F][K:bass] [A,E]2 [D,D]>[D,D] | %19
 [E,CE]2 [E,CE]2 [E,B,D]2 [E,G,D]2 |[M:3/4] [A,,A,]6 |] %21
V:3
 x8 | x8 |[M:3/4] z2 DC B,2 |[M:1/4] x2 |[M:4/4] x8 |[M:3/4] z2 [CE][B,D] C2 |[M:1/4] x2 | %7
[M:4/4] x8 |[M:3/4] z2[K:bass] A,_G, F,2 |[M:1/4][K:treble] x2 |[M:4/4] x8 |[M:3/4] x6 | %12
[M:1/4] x2 |[M:4/4] z2 E=D E2 df | z2 AG A2 c>B | x8 | x8 | x8 | x8 | x8 |[M:3/4] x6 |] %21

